packages/core/src/svgs/sfm.svg

<svg width="24" height="24" viewBox="0 0 24 24" fill="none" xmlns="http://www.w3.org/2000/svg">
<g clip-path="url(#clip0_31_18546)">
<path d="M0 0H24V24H0V0Z" fill="#F0F3FA"/>
<path fill-rule="evenodd" clip-rule="evenodd" d="M14.503 6.57415C15.5463 7.04456 16.4339 7.80279 17.0615 8.75986C16.8044 9.00415 16.6587 9.29129 16.633 9.62129C16.6166 9.79502 16.6372 9.97026 16.6934 10.1354C16.7497 10.3006 16.8404 10.452 16.9594 10.5796C17.0785 10.7071 17.2233 10.808 17.3842 10.8755C17.5451 10.9431 17.7185 10.9757 17.893 10.9713C17.923 10.9713 17.9401 10.9841 17.9444 11.0141L18.0301 11.7641C18.0515 12.4884 17.9444 13.187 17.7087 13.8641C17.0487 15.6513 15.6087 16.907 13.8301 17.537C12.032 18.1837 10.066 18.1912 8.26297 17.5584C7.98011 17.4556 7.72725 17.3399 7.50868 17.2113C7.36725 17.1256 7.3544 17.147 7.46582 17.2627C8.36582 18.2056 9.59582 18.677 10.8858 18.8013L11.443 18.857H12.4158C13.7056 18.7659 14.9453 18.3211 15.9987 17.5713C16.9425 16.891 17.6976 15.9815 18.1928 14.9287C18.688 13.8759 18.907 12.7143 18.8291 11.5534C18.7513 10.3925 18.3791 9.27061 17.7478 8.29333C17.1164 7.31606 16.2466 6.51562 15.2204 5.96745C14.1941 5.41928 13.0452 5.14142 11.8818 5.16006C10.7185 5.1787 9.57909 5.49323 8.57092 6.074C7.56276 6.65477 6.71907 7.48266 6.11934 8.47966C5.51961 9.47667 5.1836 10.6099 5.14297 11.7727C5.10868 12.6556 5.25868 13.4999 5.59297 14.3013C5.92297 15.0941 6.40725 15.7284 7.05011 16.2084C7.78073 16.7431 8.68128 16.993 9.58297 16.9113C10.633 16.847 11.593 16.487 12.5744 16.0156C13.0887 15.7713 13.5515 15.4456 13.963 15.0427C14.8544 14.1856 15.3901 13.127 15.5701 11.8541C15.6258 11.4899 15.643 11.0999 15.6258 10.6884C15.6258 10.667 15.613 10.6456 15.5915 10.6327L12.0901 8.24129C12.0687 8.22843 12.0473 8.22843 12.0301 8.24129L8.52011 10.6413C8.51073 10.6472 8.50304 10.6554 8.49778 10.6652C8.49252 10.675 8.48988 10.6859 8.49011 10.697V11.2756C8.51371 12.0464 8.69957 12.8036 9.03557 13.4978C9.37157 14.1919 9.85016 14.8074 10.4401 15.3041C10.4511 15.3137 10.4644 15.3203 10.4786 15.3233C10.4929 15.3263 10.5076 15.3256 10.5215 15.3213L11.4258 14.9699C11.443 14.9656 11.4473 14.957 11.4515 14.9527V14.9441L11.443 14.9356L11.4344 14.927C10.8093 14.5107 10.2962 13.9469 9.94044 13.2855C9.58468 12.624 9.39715 11.8852 9.3944 11.1341L12.013 9.34701C12.0258 9.33693 12.0416 9.33145 12.058 9.33145C12.0743 9.33145 12.0901 9.33693 12.103 9.34701L14.6958 11.117C14.7173 11.1341 14.7258 11.1513 14.7215 11.177L14.6358 11.9827C14.4776 12.8838 14.0433 13.7135 13.393 14.357C13.153 14.5927 12.8273 14.8241 12.4158 15.0427C11.4001 15.6556 10.2044 16.0799 9.00868 16.007C8.56725 15.9813 8.15154 15.8441 7.74868 15.5913C7.21866 15.2498 6.79773 14.7634 6.53582 14.1899L6.25297 13.4741C6.24834 13.4613 6.24792 13.4473 6.25177 13.4342C6.25563 13.4211 6.26355 13.4096 6.2744 13.4013C6.70725 13.0241 6.60868 12.3727 6.07297 12.1456C6.06379 12.1424 6.0557 12.1367 6.04963 12.1291C6.04356 12.1215 6.03977 12.1124 6.03868 12.1027V12.0513C6.03868 11.2156 6.21011 10.4141 6.53582 9.65129C6.54406 9.63202 6.55941 9.61667 6.57868 9.60843C6.59326 9.60138 6.60961 9.59884 6.62564 9.60113C6.64167 9.60342 6.65666 9.61044 6.66868 9.62129C6.68076 9.63412 6.69535 9.64433 6.71154 9.65129H6.7244C7.47011 9.82701 8.09582 9.62986 8.59725 9.05129C9.01725 8.47701 9.0644 7.817 8.73011 7.06272C8.7282 7.0587 8.72722 7.05431 8.72722 7.04986C8.72722 7.04542 8.7282 7.04102 8.73011 7.03701H8.7344V7.03272L8.74297 7.02843C9.38984 6.59943 10.1149 6.30216 10.8768 6.15361C11.6386 6.00507 12.4223 6.00816 13.183 6.16272C13.6458 6.25272 14.083 6.38986 14.4987 6.57843L14.503 6.57415ZM8.28868 8.96986C8.74725 8.42986 8.81582 7.85558 8.4944 7.24272C8.49108 7.23756 8.4867 7.23318 8.48154 7.22986L8.47725 7.22558H8.46011L8.44725 7.23415C7.80841 7.7152 7.26974 8.31647 6.86154 9.00415L6.71154 9.26129C6.70653 9.26952 6.70344 9.27877 6.70249 9.28835C6.70154 9.29794 6.70276 9.30761 6.70605 9.31666C6.70934 9.32571 6.71462 9.33391 6.72151 9.34065C6.72839 9.34738 6.7367 9.35248 6.74582 9.35558C7.34582 9.51843 7.86011 9.38986 8.28868 8.96986ZM17.1687 9.05558C16.5987 9.71129 17.0058 10.6113 17.8501 10.697C17.8715 10.697 17.8801 10.6884 17.8758 10.667C17.7357 10.1018 17.5194 9.55826 17.233 9.05129C17.2232 9.04422 17.2111 9.04117 17.1991 9.04277C17.1872 9.04436 17.1763 9.05048 17.1687 9.05986V9.05558ZM6.0644 12.5013L6.14582 13.067C6.1456 13.0687 6.14589 13.0704 6.14666 13.0719C6.14742 13.0735 6.14862 13.0747 6.15011 13.0756H6.15868C6.19297 13.067 6.22725 13.0327 6.2444 12.977C6.26154 12.9213 6.26582 12.8484 6.25725 12.7713L6.25297 12.7541C6.24457 12.6975 6.22721 12.6425 6.20154 12.5913C6.19635 12.581 6.19063 12.571 6.1844 12.5613C6.16996 12.539 6.15097 12.52 6.12868 12.5056C6.11213 12.495 6.09246 12.4905 6.07297 12.4927H6.0644V12.5013Z" fill="url(#paint0_linear_31_18546)"/>
<path fill-rule="evenodd" clip-rule="evenodd" d="M16.8087 13.1657C16.9517 13.2122 17.0742 13.3068 17.1555 13.4333C17.2367 13.5599 17.2717 13.7106 17.2544 13.86C17.2387 13.9904 17.1835 14.1129 17.0962 14.2109C17.0088 14.309 16.8935 14.378 16.7658 14.4086C16.6724 14.4314 16.575 14.4333 16.4807 14.4143C16.3864 14.3952 16.2975 14.3557 16.2202 14.2984C16.1429 14.2412 16.0791 14.1676 16.0334 14.0829C15.9878 13.9983 15.9613 13.9046 15.9558 13.8086C15.9498 13.6831 15.9807 13.5585 16.0446 13.4503C16.1086 13.3422 16.2029 13.2552 16.3158 13.2C16.4701 13.1229 16.6458 13.1143 16.8087 13.1657ZM16.5087 14.13C16.2644 14.0357 16.1873 13.8729 16.2644 13.6286C16.4273 13.3671 16.7701 13.3286 16.933 13.6029C17.0144 13.7743 16.9758 13.9286 16.8301 14.0529C16.7273 14.1471 16.6158 14.1729 16.5044 14.13H16.5087Z" fill="url(#paint1_linear_31_18546)"/>
<path d="M12.0428 14.2457L12.1843 13.5171C12.1843 13.5115 12.1865 13.506 12.1905 13.502C12.1946 13.498 12.2 13.4957 12.2057 13.4957C12.2101 13.4959 12.2143 13.4971 12.2181 13.4994C12.2218 13.5016 12.2249 13.5048 12.2271 13.5086L12.33 13.65C12.3326 13.6542 12.3366 13.6573 12.3413 13.6589C12.346 13.6604 12.3511 13.6603 12.3557 13.6586H12.36C12.3634 13.6571 12.3664 13.6547 12.3687 13.6517C12.371 13.6487 12.3724 13.6452 12.3728 13.6414L12.45 13.2386V13.2214C12.4482 13.2173 12.4452 13.2139 12.4413 13.2116C12.4375 13.2092 12.433 13.2082 12.4286 13.2086H11.6357V13.2129H11.6271L11.6228 13.2214C11.6194 13.2265 11.6179 13.2325 11.6186 13.2386L11.6957 13.6329C11.6969 13.6369 11.6991 13.6406 11.7021 13.6436C11.7051 13.6466 11.7088 13.6488 11.7128 13.65C11.7175 13.6518 11.7225 13.6519 11.7272 13.6503C11.7319 13.6487 11.7359 13.6456 11.7386 13.6414L11.8371 13.5214L11.8457 13.5129C11.8504 13.5117 11.8552 13.512 11.8598 13.5135C11.8643 13.515 11.8683 13.5177 11.8714 13.5214L11.88 13.5343L11.9914 14.2457L12 14.2586C12.0032 14.262 12.0075 14.2643 12.0121 14.2651C12.0168 14.2658 12.0215 14.2651 12.0257 14.2629H12.03L12.0386 14.2457H12.0428Z" fill="url(#paint2_linear_31_18546)"/>
<path d="M11.743 12.3127V11.1855C11.743 10.8855 12.0087 10.5084 12.1715 10.2727C12.1743 10.2691 12.1779 10.2662 12.182 10.2642C12.1861 10.2623 12.1906 10.2612 12.1951 10.2612C12.1996 10.2612 12.2041 10.2623 12.2082 10.2642C12.2123 10.2662 12.2159 10.2691 12.2187 10.2727C12.4115 10.547 12.6473 10.8812 12.6473 11.2155C12.6387 11.6012 12.6344 11.9698 12.6387 12.3212C12.6387 12.347 12.6558 12.3641 12.6815 12.3727C12.9489 12.4682 13.1817 12.6413 13.3501 12.8698C13.3501 12.8778 13.3469 12.8854 13.3413 12.891C13.3357 12.8967 13.3281 12.8998 13.3201 12.8998H11.0658C11.0613 12.899 11.0569 12.8971 11.0532 12.8943C11.0495 12.8915 11.0465 12.8879 11.0444 12.8837C11.0423 12.8796 11.0413 12.875 11.0413 12.8703C11.0413 12.8657 11.0423 12.8611 11.0444 12.857C11.2244 12.6298 11.4473 12.4712 11.7044 12.377C11.7344 12.3641 11.7473 12.347 11.7473 12.317L11.743 12.3127Z" fill="#25223D"/>
</g>
<defs>
<linearGradient id="paint0_linear_31_18546" x1="12.0001" y1="5.14272" x2="12.0001" y2="18.857" gradientUnits="userSpaceOnUse">
<stop stop-color="#00A89E"/>
<stop offset="1" stop-color="#ABDDD7"/>
</linearGradient>
<linearGradient id="paint1_linear_31_18546" x1="12.0001" y1="5.14286" x2="12.0001" y2="18.8571" gradientUnits="userSpaceOnUse">
<stop stop-color="#00A89E"/>
<stop offset="1" stop-color="#ABDDD7"/>
</linearGradient>
<linearGradient id="paint2_linear_31_18546" x1="12" y1="5.14286" x2="12" y2="18.8571" gradientUnits="userSpaceOnUse">
<stop stop-color="#00A89E"/>
<stop offset="1" stop-color="#ABDDD7"/>
</linearGradient>
<clipPath id="clip0_31_18546">
<rect width="24" height="24" fill="white"/>
</clipPath>
</defs>
</svg>

<svg xmlns="http://www.w3.org/2000/svg" width="24" height="24" fill="none" viewBox="0 0 24 24"><g clip-path="url(#a)"><path fill="#F0F3FA" d="M0 0h24v24H0z"/><path fill="url(#b)" fill-rule="evenodd" d="M14.503 6.574a6 6 0 0 1 2.558 2.186 1.3 1.3 0 0 0-.368 1.375 1.24 1.24 0 0 0 1.2.836q.045-.001.051.043l.086.75a5.8 5.8 0 0 1-.321 2.1c-.66 1.787-2.1 3.043-3.879 3.673a8.3 8.3 0 0 1-5.567.021 4.6 4.6 0 0 1-.754-.347c-.142-.085-.155-.064-.043.052.9.943 2.13 1.414 3.42 1.538l.557.056h.973a7.03 7.03 0 0 0 3.583-1.286 6.853 6.853 0 1 0-10.856-5.798 5.9 5.9 0 0 0 .45 2.528q.494 1.188 1.457 1.907a3.72 3.72 0 0 0 2.533.703c1.05-.064 2.01-.424 2.991-.895q.773-.368 1.389-.973c.891-.857 1.427-1.916 1.607-3.189q.083-.547.056-1.166a.07.07 0 0 0-.034-.055L12.09 8.24q-.033-.02-.06 0l-3.51 2.4a.06.06 0 0 0-.03.056v.579a5.49 5.49 0 0 0 1.95 4.028.09.09 0 0 0 .082.017l.904-.351c.017-.004.021-.013.025-.017v-.009l-.008-.008-.009-.009a4.58 4.58 0 0 1-2.04-3.793l2.619-1.787a.07.07 0 0 1 .09 0l2.593 1.77c.021.017.03.034.026.06l-.086.806a4.4 4.4 0 0 1-1.243 2.374q-.36.356-.977.686c-1.016.613-2.212 1.037-3.407.964a2.6 2.6 0 0 1-1.26-.416 3.3 3.3 0 0 1-1.213-1.401l-.283-.716a.064.064 0 0 1 .021-.073.734.734 0 0 0-.201-1.255.05.05 0 0 1-.034-.043v-.052c0-.835.171-1.637.497-2.4a.08.08 0 0 1 .043-.043.08.08 0 0 1 .09.013.1.1 0 0 0 .043.03h.012c.746.176 1.372-.021 1.873-.6q.632-.859.133-1.988a.03.03 0 0 1 0-.026h.004v-.004l.009-.005a5.9 5.9 0 0 1 4.44-.865q.693.134 1.316.415zM8.289 8.97q.688-.809.205-1.727l-.012-.013-.005-.004H8.46l-.013.008a6.1 6.1 0 0 0-1.585 1.77l-.15.257a.064.064 0 0 0 .034.095q.9.244 1.543-.386m8.88.086c-.57.655-.163 1.555.681 1.641q.032 0 .026-.03a6.4 6.4 0 0 0-.643-1.616.047.047 0 0 0-.064.009zM6.064 12.5l.082.566v.005l.004.004h.009c.034-.009.068-.043.085-.099a.5.5 0 0 0 .013-.206l-.004-.017a.5.5 0 0 0-.069-.193.2.2 0 0 0-.055-.055.1.1 0 0 0-.056-.013h-.009z" clip-rule="evenodd"/><path fill="url(#c)" fill-rule="evenodd" d="M16.809 13.166a.65.65 0 0 1 .445.694.643.643 0 0 1-.773.554.656.656 0 0 1-.525-.605.64.64 0 0 1 .36-.609.66.66 0 0 1 .493-.034m-.3.964c-.245-.094-.322-.257-.245-.501.163-.262.506-.3.669-.026.081.171.043.326-.103.45q-.156.141-.326.077z" clip-rule="evenodd"/><path fill="url(#d)" d="m12.043 14.246.141-.729a.02.02 0 0 1 .022-.021.03.03 0 0 1 .021.013l.103.141a.02.02 0 0 0 .026.009h.004l.009-.007.004-.01.077-.403v-.018a.02.02 0 0 0-.009-.01l-.012-.002h-.793v.004h-.009l-.004.008a.03.03 0 0 0-.004.018l.077.394a.03.03 0 0 0 .017.017q.008.003.014 0a.02.02 0 0 0 .012-.009l.098-.12.009-.008h.014l.011.008.009.013.111.712.009.013a.02.02 0 0 0 .012.006q.008 0 .014-.002h.004l.009-.017z"/><path fill="#25223D" d="M11.743 12.313v-1.128c0-.3.266-.677.428-.912a.03.03 0 0 1 .048 0c.193.274.428.608.428.943q-.014.578-.008 1.105c0 .026.017.043.043.052.267.095.5.268.668.497a.03.03 0 0 1-.03.03h-2.254a.03.03 0 0 1-.025-.03l.003-.013a1.5 1.5 0 0 1 .66-.48c.03-.013.043-.03.043-.06z"/></g><defs><linearGradient id="b" x1="12" x2="12" y1="5.143" y2="18.857" gradientUnits="userSpaceOnUse"><stop stop-color="#00A89E"/><stop offset="1" stop-color="#ABDDD7"/></linearGradient><linearGradient id="c" x1="12" x2="12" y1="5.143" y2="18.857" gradientUnits="userSpaceOnUse"><stop stop-color="#00A89E"/><stop offset="1" stop-color="#ABDDD7"/></linearGradient><linearGradient id="d" x1="12" x2="12" y1="5.143" y2="18.857" gradientUnits="userSpaceOnUse"><stop stop-color="#00A89E"/><stop offset="1" stop-color="#ABDDD7"/></linearGradient><clipPath id="a"><path fill="#fff" d="M0 0h24v24H0z"/></clipPath></defs></svg>
